lib/functional/media/headset.svg

<svg xmlns="http://www.w3.org/2000/svg" fill="none" stroke="currentColor" aria-hidden="true" viewBox="0 0 32 32"><g id="Icon-Headset"><g clip-path="url(#clip0_12_3475)"><g id="size=md (32px)"><path id="Vector" stroke-linecap="round" stroke-linejoin="round" stroke-width="2" d="M28.1875 15.9999H24.1875C23.6571 15.9999 23.1484 16.2106 22.7733 16.5857C22.3982 16.9608 22.1875 17.4695 22.1875 17.9999V22.9999C22.1875 23.5304 22.3982 24.0391 22.7733 24.4141C23.1484 24.7892 23.6571 24.9999 24.1875 24.9999H26.1875C26.7179 24.9999 27.2266 24.7892 27.6017 24.4141C27.9768 24.0391 28.1875 23.5304 28.1875 22.9999V15.9999ZM28.1875 15.9999C28.1876 14.4156 27.8739 12.847 27.2646 11.3845C26.6553 9.92205 25.7624 8.59471 24.6375 7.47909C23.5126 6.36348 22.1779 5.48165 20.7104 4.88451C19.2429 4.28737 17.6718 3.98673 16.0875 3.99993C14.5043 3.98838 12.9344 4.29025 11.4684 4.88814C10.0024 5.48602 8.66919 6.36811 7.5456 7.48356C6.42201 8.59901 5.53026 9.92579 4.92174 11.3874C4.31322 12.8491 3.99996 14.4167 4 15.9999V22.9999C4 23.5304 4.21071 24.0391 4.58579 24.4141C4.96086 24.7892 5.46957 24.9999 6 24.9999H8C8.53043 24.9999 9.03914 24.7892 9.41421 24.4141C9.78929 24.0391 10 23.5304 10 22.9999V17.9999C10 17.4695 9.78929 16.9608 9.41421 16.5857C9.03914 16.2106 8.53043 15.9999 8 15.9999H4"/><path id="Vector_2" stroke-linecap="round" stroke-linejoin="round" stroke-width="2" d="M28.1875 23V26C28.1875 27.0609 27.7661 28.0783 27.0159 28.8284C26.2658 29.5786 25.2484 30 24.1875 30H17"/></g></g></g><defs><clipPath id="clip0_12_3475"><rect width="32" height="32" fill="white" rx="5"/></clipPath></defs></svg>

<svg xmlns="http://www.w3.org/2000/svg" fill="none" stroke="currentColor" aria-hidden="true" viewBox="0 0 32 32"><g stroke="#101828" stroke-linecap="round" stroke-linejoin="round" stroke-width="2" clip-path="url(#a)"><path d="M28.188 16h-4a2 2 0 0 0-2 2v5a2 2 0 0 0 2 2h2a2 2 0 0 0 2-2v-7Zm0 0a12 12 0 0 0-12.1-12A12 12 0 0 0 4 16v7a2 2 0 0 0 2 2h2a2 2 0 0 0 2-2v-5a2 2 0 0 0-2-2H4"/><path d="M28.188 23v3a4 4 0 0 1-4 4H17"/></g><defs><clipPath id="a"><rect width="32" height="32" fill="#fff" rx="5"/></clipPath></defs></svg>
